X:47
T:RVW2/1/47 ? [No Title]-0
T:Sung by Mrs. Dann at Cottenham, August 3rd 1907 (1 of 4)
C:Transcribed by Simon Furey and Lewis Jones
L:1/4
Q:1/4=120
M:4/4
I:linebreak $
K:G
G | G B d d | d c/B/ c d | e3/2 d/ c B | A3/2 B/ c c | d2 G E |$ D2 B3/2 c/ | B3/2 A/ A G | F A d d | G B c B | G3 |]

